X:1
T:Ahi, se la donna mia
T:Jacques Arcadelt c.1500-1568
T:Ahi, se la donna mia
T:This work is licensed under CC0: creativecommons.org/publicdomain/zero/1.0/
T:Transcribed from 1539 Gardano edition of Arcadelt's Il primo libro di madrigali a 4 Original note values halved
T:This work is licensed under CC0: creativecommons.org/publicdomain/zero/1.0/
T:This work is licensed under CC0: creativecommons.org/publicdomain/zero/1.0/
T:This work is licensed under CC0: creativecommons.org/publicdomain/zero/1.0/
C:Jacques Arcadelt
C:c.1500-1568
Z:Anonymous
Z:This work is licensed under CC0: creativecommons.org/publicdomain/zero/1.0/
%%score [ 1 2 3 4 ]
L:1/8
M:4/4
K:C
V:1 treble nm="Piano" snm="Pno."
V:2 treble transpose=-12 nm="Piano" snm="Pno."
V:3 treble transpose=-12 nm="Piano" snm="Pno."
V:4 treble nm="Piano" snm="Pno."
V:1
"^Cantus" x8 |"^Instrument change" c8 | A6 c2 | _B2 A4 G2 | A2 c2 _B2 A2 | G2 F2 A4 | G2 C2 E2 F2 | %7
w: |Ahi|se la|don- na mi-|a qua- l'hor las-|so mi ve-|de vo- les- s'es-|
 F2 E2 A4 | G4 z2 F2 | G2 G2 A2 F2 | G2 G2 _B2 A2 | G4 F4 | z2 G2 G2 A2 | _B6 A2 | G4 F4- | %15
w: ser piu pi-|a non|m'u- di- reb- be'o-|gni'un gri- dar mer-|ce- de|ne di pie-|to- si'ac-|cen- ti|
 F4 z2 F2 | F2 E2 F2 G2 | A4 _B4 | A2 G3 F F2- | F2 ED E4 | F4 A4- | A4 A2 A2 | G2 G2 F2 ED | %23
w: _ ri-|son- ar eb- be'il|ciel di|miei la- * men-||ti deh|_ por- gi|dun- qu'a- mo- * *|
 E2 E2 F2 G2 | A2 A2 G2 G2 | A2 c2 c2"^ยง" B2 | c4 c4 | z8 | z4 z2 F2 | G2 A2 _B2 G2 | A3 G F2 E2 | %31
w: re tan- ta for-|z'al mio cor tan-|ta for- z'al mio|co- re||mo-|stra- r'un ser- v'e-|ter- na- men- te|
 D4 C4 | z8 | z2 C2 D2 E2 | F2 D2 E2 E2 | F2 A2 G2 F2- | F2 E2 F4- | F8- | F8- | F8 |] %40
w: fi- do||mo- stra- r'un|ser- v'e- ter- na-|men- te fi- *|* * do.|_|||
V:2
"^Alto" x8 |"^Instrument change" F,8 | F,6 F,2 | D,2 F,2 F,2 E,D, | E,4 z2 F,2 | E,2 D,2 C,2 E,2 | %6
w: |Ahi|se la|don- na mi- * *|a qua-|l'hor las- so mi|
 D,2 C,4 _B,,2 | C,2 C,2 D,2 F,2 | F,2 E,2 F,2 C,2 | z2 C,2 C,2 D,2 | E,2 C,2 D,2 F,2 | %11
w: ve- * *|de vo- les- s'es-|ser piu pi- a|non m'u- di-|reb- be'o- gni'un gri-|
 F,2 E,2 F,2 F,2 | z4 z2 C,2 | D,2 E,2 F,4- | F,2 E,2 D,4 | C,2 C,2 C,2 _B,,2 | C,6 C,2 | %17
w: dar mer- ce- de|ne|di pie- to-|* si'ac- cen-|ti ri- son- ar|eb- be'il|
 A,,2 C,2 F,4- | F,2 E,2 D,2 _B,,2 | C,8 | C,4 F,4- | F,4 F,2 F,2 | F,2 E,2 D,4 | C,2 C,2 D,2 E,2 | %24
w: ciel di miei|_ la- men- *||ti deh|_ por- gi|dun- qu'a- mo-|re tan- ta for-|
 F,2 F,2 E,2 E,2 | F,3 E, D,2 D,2 | E,2 E,2 z2 C,2- | C,2 F,2 E,2 A,2- | A,2 E,2 F,2 C,2 | %29
w: z'al mio cor tan-|ta for- z'al mio|co- re che|_ pos- sa la|_ do- v'o- gni|
 D,3 C, _B,,4 | A,,2 C,2 D,2 E,2 | F,3 D, E,2 E,2 | D,2 C,2 D,4 | C,2 G,,2 A,,2 G,,2 | %34
w: ben fa ni-|do mos- tra- r'un|ser- v'e- ter- na-|men- te fi-|do, e- ter- na-|
 G,,2 F,,2 G,,2 G,,2 | z2 A,,2 D,2 D,2 | C,6 C,2 | D,2 C,2 _B,,2 A,,2 | D,4 C,4- | C,8 |] %40
w: men- te fi- do,|mo- stra- r'un|ser- v'e-|ter- na- men- te|fi- do.|_|
V:3
"^Tenor" x8 |"^Instrument change" A,,8 | C,6 A,,2 | _B,,2 C,2 D,2 C,B,, | C,4 D,4 | z4 C,4 | %6
w: |Ahi|se la|don- na mi- * *|* a|qua-|
 _B,,2 A,,2 G,,2 F,,2 | G,,4 F,,4 | z2 C,2 A,,2 A,,2 | C,3 _B,, A,,4 | G,,4 z4 | _B,,4 C,2 D,2 | %12
w: l'hor las- so mi|ve- de|vo- les- s'es-|ser piu pi-|a|non m'u- di-|
 D,2 E,2 D,2 C,2 | D,2 _B,,2 C,4- | C,4 F,,2 A,,2 | A,,2 A,,2 F,,3 G,, | A,,2 G,,2 z2 G,,2 | %17
w: reb- be'o- gni'un gri-|dar mer- ce-|* de ne|di pie- to- si'ac-|cen- ti ri-|
 C,2 C,2 D,2 D,2 | C,3 _B,, A,,2 F,,2 | G,,8 | F,,4 D,4- | D,4 C,2 C,2 | C,2 C,2 A,,4 | %23
w: son- ar eb- be'il|ciel di miei la-|men-|ti deh|_ por- gi|dun- qu'a- mo-|
 A,,2 A,,2 D,2 C,2 | F,,G,,A,,_B,, C,2 C,2 | A,,2 F,,2 G,,2 G,,2 | C,2 C,2 G,,4 | A,,2 F,,2 C,4- | %28
w: re tan- ta for-|z'al _ _ mio cor tan-|ta for- z'al mio|co- re che|pos- sa la|
 C,2 C,2 C,2 C,2 | _B,,2 A,,2 G,,4 | F,,2 A,,2 _B,,2 C,2 | C,2 _B,,2 C,3 B,, | A,,2 G,,2 A,,4 | %33
w: _ do- v'o- gni|ben fa ni-|do mo- stra- r'un|ser- v'e- ter- na-|men- te fi-|
 G,,4 z2 G,,2 | A,,2 _B,,2 C,2 C,2 | A,,2 C,2 _B,,2 A,,2 | G,,4 F,,2 A,,2 | _B,,2 C,2 D,2 C,2 | %38
w: do mo-|stra- r'un ser- v'e-|ter- na- men- te|fi- do, e-|ter- na- men- te|
 _B,,4 A,,4- | A,,8 |] %40
w: fi- do.|_|
V:4
"^Bass" x8 |"^Instrument change" F,8 | F,6 F,2 | G,2 A,2 _B,4 | A,4 D,4 | E,2 F,4 C,2 | %6
w: |Ahi|se la|don- na mi-|a qua-|l'hor la- sso|
 z2 F,2 E,2 D,2 | C,2 C,2 F,,4 | C,2 C,2 D,2 F,2 | F,2 E,2 F,4 | C,4 z2 F,2 | G,2 G,2 A,2 F,2 | %12
w: qual- hor las-|so mi ve-|de vo- les- s'es-|ser piu pi-|a non|m'u- di- reb- be'o-|
 G,2 G,2 _B,2 A,2 | G,4 F,4 | z2 C,2 D,3 E, | F,2 F,2 D,4 | C,2 C,2 F,2 E,2 | F,2 F,2 _B,,4 | %18
w: gni'un gri- dar mer-|ce- de|ne di pie-|to- si'ac- cen-|ti ri- son- ar|eb- be'il ciel|
 C,4 D,2 D,2 | C,8 | F,4 D,4- | D,4 F,2 F,2 | C,2 C,2 D,4 | A,,4 z4 | z8 | z8 | C,8 | %27
w: di miei la-|men-|ti deh|_ por- gi|dun- qu'a- mo-|re|||che|
 F,2 D,2 A,4- | A,2 A,2 A,2 A,2 | G,2 F,4 E,2 | F,4 z4 | z4 C,4 | D,2 E,2 F,2 D,2 | %33
w: pos- sa la|_ do- v'o- gni|ben fa ni-|do|mo-|strar un ser- v'e-|
 E,2 E,2 F,2 E,2 | D,4 C,2 C,2 | F,2 F,2 _B,,2 B,,2 | C,4 F,2 F,2 | _B,,2 A,,2 B,,2 F,2 | %38
w: ter- na- men- te|fi- do, e-|ter- na- men- te|fi- do, e-|ter- na- men- te|
 _B,,4 F,4- | F,8 |] %40
w: fi- do.|_|

